img/linkedin.svg

<svg xmlns="http://www.w3.org/2000/svg" xmlns:xlink="http://www.w3.org/1999/xlink" width="16" height="16"><defs><path id="a" d="M0 1.146C0 .513.526 0 1.175 0h13.65C15.474 0 16 .513 16 1.146v13.708c0 .633-.526 1.146-1.175 1.146H1.175C.526 16 0 15.487 0 14.854V1.146Z"/></defs><g fill="none" fill-rule="evenodd"><mask id="b" fill="#fff"><use xlink:href="#a"/></mask><use xlink:href="#a" fill="#000" fill-rule="nonzero"/><path fill="#FFF" fill-rule="nonzero" d="M4.943 13.394V6.169H2.542v7.225zM3.743 5.182c.837 0 1.358-.554 1.358-1.248-.015-.709-.52-1.248-1.342-1.248-.822 0-1.359.54-1.359 1.248 0 .694.521 1.248 1.327 1.248h.016ZM8.651 13.394V9.359c0-.216.016-.432.08-.586.173-.431.568-.878 1.232-.878.869 0 1.216.662 1.216 1.634v3.865h2.401V9.25c0-2.22-1.184-3.252-2.764-3.252-1.274 0-1.845.7-2.165 1.193v.025h-.016a5.54 5.54 0 0 1 .016-.025V6.169h-2.4c.03.678 0 7.225 0 7.225h2.4Z" mask="url(#b)"/></g></svg>

<?xml version="1.0" encoding="UTF-8"?>
<svg width="16px" height="16px" viewBox="0 0 16 16" version="1.1" xmlns="http://www.w3.org/2000/svg" xmlns:xlink="http://www.w3.org/1999/xlink">
    <title>linkedin</title>
        <g id="linkedin" fill-rule="nonzero">
            <path d="M0,1.146 C0,0.513 0.526,0 1.175,0 L14.825,0 C15.474,0 16,0.513 16,1.146 L16,14.854 C16,15.487 15.474,16 14.825,16 L1.175,16 C0.526,16 0,15.487 0,14.854 L0,1.146 Z" id="a" fill="#000000"></path>
            <path d="M4.943,13.394 L4.943,6.169 L2.542,6.169 L2.542,13.394 L4.943,13.394 Z M3.743,5.182 C4.58,5.182 5.101,4.628 5.101,3.934 C5.086,3.225 4.581,2.686 3.759,2.686 C2.937,2.686 2.4,3.226 2.4,3.934 C2.4,4.628 2.921,5.182 3.727,5.182 L3.743,5.182 Z M8.651,13.394 L8.651,9.359 C8.651,9.143 8.667,8.927 8.731,8.773 C8.904,8.342 9.299,7.895 9.963,7.895 C10.832,7.895 11.179,8.557 11.179,9.529 L11.179,13.394 L13.58,13.394 L13.58,9.25 C13.58,7.03 12.396,5.998 10.816,5.998 C9.542,5.998 8.971,6.698 8.651,7.191 L8.651,7.216 L8.635,7.216 C8.640311,7.20765239 8.64564435,7.19931903 8.651,7.191 L8.651,6.169 L6.251,6.169 C6.281,6.847 6.251,13.394 6.251,13.394 L8.651,13.394 L8.651,13.394 Z" id="Shape" fill="#FFFFFF"></path>
        </g>
</svg>
